X:911
T:Whiskey Welcome Back Again
R:Strathspey
B:The Athole Collection
M:C
L:1/8
K:B_
B,<B B>d c>Bd>d|B<cG<B F>D C2|B<B B>d c>Bc>d|B<F G<B F>D B,2:|
d<f f>g f>dc>B|d<f f>g f>d ~c2|d<f f>g f>dc>d|~B>F G<B F>D B,2|
d<f f>g f>dc>B|d<f f>g f>dc>e|d<fc<d ~B>cd>c|B<F G<B F>D B,2||

